X:1
T:Polska efter Kalle Rosenqvist
R:Polska
S:efter Kalle Rosenqvist
O:Ankarsrum, Smland
B:50 Smlndska ltar
Z:Jonas Brunskog
N:Upptecknad av Gsta Klemming
N:nr. 6 i '50 Smlndska ltar'
M:3/4
L:1/8
K:C
G|:C>C E>E G>G|c>e c3 B|G>G B>B d2|(G>G) ((3cGc) e2|
C>C E>E G>G|e>e c3 c| B>c d2 (f>d)|[1((5B/c/B/A/B/) c3 G:|[2 ((5B/c/B/A/B/) c3 z|]
|:G>G B>B d>d|G>G ((3cGc) e2|G>G B>B d>d|G>G ((3cGc) e2|
C>C E>E G>G|e>e c3 c| B>c d2 (f>d)|((5B/c/B/A/B/) c3 z:|
